icon-svg/scene-read.svg

<svg xmlns="http://www.w3.org/2000/svg" fill="#44739e" viewBox="0 0 24 24"><path d="M12 1.91C6.44 1.91 1.91 6.44 1.91 12S6.44 22.09 12 22.09 22.09 17.56 22.09 12 17.56 1.91 12 1.91m5.74 15.51H6.43c-.33 0-.6-.27-.6-.6s.27-.6.6-.6h11.31c.33 0 .6.27.6.6s-.27.6-.6.6m0-2.4H6.43c-.33 0-.6-.27-.6-.6s.27-.6.6-.6h11.31c.33 0 .6.27.6.6s-.27.6-.6.6m0-2.4H6.43c-.33 0-.6-.27-.6-.6s.27-.6.6-.6h11.31c.33 0 .6.27.6.6s-.27.6-.6.6m0-2.4H6.43c-.33 0-.6-.27-.6-.6s.27-.6.6-.6h11.31c.33 0 .6.27.6.6s-.27.6-.6.6m0-2.41H6.43c-.33 0-.6-.27-.6-.6s.27-.6.6-.6h11.31c.33 0 .6.27.6.6s-.27.6-.6.6"/></svg>

<?xml version="1.0" encoding="UTF-8"?>
<svg width="24px" fill="#44739e" height="24px" viewBox="0 0 24 24" version="1.1" xmlns="http://www.w3.org/2000/svg" xmlns:xlink="http://www.w3.org/1999/xlink">
            <path d="M12,1.91C6.44,1.91,1.91,6.44,1.91,12c0,5.56,4.53,10.09,10.09,10.09c5.56,0,10.09-4.53,10.09-10.09 C22.09,6.44,17.56,1.91,12,1.91z M17.74,17.42H6.43c-0.33,0-0.6-0.27-0.6-0.6s0.27-0.6,0.6-0.6h11.31c0.33,0,0.6,0.27,0.6,0.6 S18.07,17.42,17.74,17.42z M17.74,15.02H6.43c-0.33,0-0.6-0.27-0.6-0.6s0.27-0.6,0.6-0.6h11.31c0.33,0,0.6,0.27,0.6,0.6 S18.07,15.02,17.74,15.02z M17.74,12.62H6.43c-0.33,0-0.6-0.27-0.6-0.6c0-0.33,0.27-0.6,0.6-0.6h11.31c0.33,0,0.6,0.27,0.6,0.6 C18.34,12.35,18.07,12.62,17.74,12.62z M17.74,10.22H6.43c-0.33,0-0.6-0.27-0.6-0.6s0.27-0.6,0.6-0.6h11.31c0.33,0,0.6,0.27,0.6,0.6 S18.07,10.22,17.74,10.22z M17.74,7.81H6.43c-0.33,0-0.6-0.27-0.6-0.6s0.27-0.6,0.6-0.6h11.31c0.33,0,0.6,0.27,0.6,0.6 S18.07,7.81,17.74,7.81z"/>

</svg>
